X:1
T:Popule meus - Palestrina
T:#
%%score [ 1 2 3 4 ]
L:1/8
Q:1/4=400
M:none
K:F
V:1 treble nm="S" snm="S"
V:2 alto nm="A" snm="A"
V:3 tenor nm="T" snm="T"
V:4 bass nm="B" snm="B"
V:1
"^Popule meus""^G. P. da Palestrina\n(1526-94)""^(Improperia in Adoratione Crucis)" A8 A8 A8 A8 A8 A8 | %1
w: Po- pu- le me- us, quid|
 A8 A8 A16 !fermata!^F16 | G8 G8 G8 G8 G8 G8 G8 G8 | G8 A8 (E4 F4) G16 !fermata!G16 | %4
w: fe- cit ti- bi?|aut in quo con- tri- sta- vi te?|re- spon- de * mi- hi.|
 A12 A4 A8 B12 A4 !fermata!A16 || A12 A4 A8 B12 A4 !fermata!A16 || %6
w: A- gi- os o The- os.|A- gi- os i- schy- ros.|
 A12 A4 A4 A4 A12 A4 !fermata!A8 | A8 A4 A4 A8 B16 !fermata!A16 || A12 A4 A8 A8 A16 !fermata!G16 | %9
w: A- gi- os a- tha- na- tos|e- le- i- son i- mas.|Mi- se- re- re no- bis.|
 A8 A8 A8 A8 A8 A8 | A8 A8 A16 !fermata!^F16 | G8 G8 G8 G8 G8 G8 G8 G8 | %12
w: Po- pu- le me- us, quid|fe- cit ti- bi?|aut in quo con- tri- sta- vi te?|
 G8 A8 (E4 F4) G16 !fermata!G16 | c8 c8 c8 c8 c8 c8 c8 c8 c8 c8 c8 !fermata!=B16 | %14
w: re- spon- de * mi- hi.|Qui- a e- du- xi te de ter- ra Ae- gy- pti:|
 c8 c8 c8 c8 c8 c8 c8 c8 B8 c16 !fermata!c16 | A12 A4 A8 B12 A4 !fermata!A16 || %16
w: pa- ra- sti cru- cem Sal- va- to- ri- tu- o.|A- gi- os o The- os.|
 A12 A4 A8 B12 A4 !fermata!A16 || A12 A4 A4 A4 A12 A4 !fermata!A8 | A8 A4 A4 A8 B16 !fermata!A16 || %19
w: A- gi- os i- schy- ros.|A- gi- os a- tha- na- tos|e- le- i- son i- mas.|
 A12 A4 A8 A8 A16 !fermata!G16 | c8 c8 c16 !fermata!c16 || c8 c8 c16 !fermata!c16 || %22
w: Mi- se- re- re no- bis.|San- ctus De- us.|San- ctus for- tis.|
 c8 c8 c8 c8 c8 c16 !fermata!c16 || %23
w: San- ctus et im- mor- ta- lis.|
[Q:1/4=391] c12[Q:1/4=381] c4[Q:1/4=373] c8[Q:1/4=363] c8[Q:1/4=349] c16[Q:1/4=340] !fermata!c16 | %24
w: Mi- se- re- re no- bis.|
V:2
 F8 F8 F8 F8 F8 F8 | F8 F8 E16 !fermata!D16 | E8 E8 E8 E8 E8 E8 E8 E8 | E8 F8 C8 D16 !fermata!E16 | %4
w: Po- pu- le me- us, quid|fe- cit ti- bi?|aut in quo con- tri- sta- vi te?|re- spon- de mi- hi.|
 F12 F4 F8 F12 F4 !fermata!F16 || F12 F4 F8 F12 F4 !fermata!F16 || %6
w: A- gi- os o The- os.|A- gi- os i- schy- ros.|
 F12 F4 F4 F4 F12 F4 !fermata!F8 | F8 F4 F4 F8 F16 !fermata!F16 || F12 F4 F8 F8 F16 !fermata!E16 | %9
w: A- gi- os a- tha- na- tos|e- le- i- son i- mas.|Mi- se- re- re no- bis.|
 F8 F8 F8 F8 F8 F8 | F8 F8 E16 !fermata!D16 | E8 E8 E8 E8 E8 E8 E8 E8 | E8 F8 C8 D16 !fermata!E16 | %13
w: Po- pu- le me- us, quid|fe- cit ti- bi?|aut in quo con- tri- sta- vi te?|re- spon- de mi- hi.|
 G8 G8 G8 G8 G8 G8 G8 G8 G8 G8 A8 !fermata!G16 | A8 A8 A8 A8 A8 A8 A8 G8 F8 G16 !fermata!A16 | %15
w: Qui- a e- du- xi te de ter- ra Ae- gy- pti:|pa- ra- sti cru- cem Sal- va- to- ri- tu- o.|
 F12 F4 F8 F12 F4 !fermata!F16 || F12 F4 F8 F12 F4 !fermata!F16 || %17
w: A- gi- os o The- os.|A- gi- os i- schy- ros.|
 F12 F4 F4 F4 F12 F4 !fermata!F8 | F8 F4 F4 F8 F16 !fermata!F16 || F12 F4 F8 F8 F16 !fermata!E16 | %20
w: A- gi- os a- tha- na- tos|e- le- i- son i- mas.|Mi- se- re- re no- bis.|
 A8 A8 G16 !fermata!A16 || A8 A8 G16 !fermata!A16 || A8 A8 A8 A8 A8 G16 !fermata!A16 || %23
w: San- ctus De- us.|San- ctus for- tis.|San- ctus et im- mor- ta- lis.|
 A12 A4 A8 A8 A16 !fermata!G16 | %24
w: Mi- se- re- re no- bis.|
V:3
 C8 C8 C8 C8 C8 C8 | C8 D4 (D8 ^C2 =B,2 C8 D8) !fermata!A,8 | C8 C8 C8 C8 C8 C8 C8 C8 | %3
w: Po- pu- le me- us, quid|fe- cit ti\- * * * * bi?|aut in quo con- tri- sta- vi te?|
 C8 C8 A,4 (C8 B,2 A,2 B,8) !fermata!C16 | C12 C4 C8 D12 C4 !fermata!C16 || %5
w: re- spon- de mi\- * * * hi.|A- gi- os o The- os.|
 C12 C4 C8 D12 C4 !fermata!C16 || C12 C4 C4 C4 C12 C4 !fermata!C8 | C8 C4 C4 C8 D16 !fermata!C16 || %8
w: A- gi- os i- schy- ros.|A- gi- os a- tha- na- tos|e- le- i- son i- mas.|
 C12 C4 C8 C8 C16 !fermata!C16 | C8 C8 C8 C8 C8 C8 | C8 D4 (D8 ^C2 =B,2 C8 D8) !fermata!A,8 | %11
w: Mi- se- re- re no- bis.|Po- pu- le me- us, quid|fe- cit ti\- * * * * bi?|
 C8 C8 C8 C8 C8 C8 C8 C8 | C8 C8 A,4 (C8 B,2 A,2 B,8) !fermata!C16 | %13
w: aut in quo con- tri- sta- vi te?|re- spon- de mi\- * * * hi.|
 E8 E8 E8 E8 E8 E8 E8 E8 E8 E8 F8 !fermata!D16 | %14
w: Qui- a e- du- xi te de ter- ra Ae- gy- pti:|
 F8 F8 F8 F8 F8 F8 F8 E8 D4 (F8 E2 D2 E8) !fermata!F16 | C12 C4 C8 D12 C4 !fermata!C16 || %16
w: pa- ra- sti cru- cem Sal- va- to- ri- tu\- * * * o.|A- gi- os o The- os.|
 C12 C4 C8 D12 C4 !fermata!C16 || C12 C4 C4 C4 C12 C4 !fermata!C8 | C8 C4 C4 C8 D16 !fermata!C16 || %19
w: A- gi- os i- schy- ros.|A- gi- os a- tha- na- tos|e- le- i- son i- mas.|
 C12 C4 C8 C8 C16 !fermata!C16 | F8 F4 (F8 E2 D2 E8) !fermata!F16 || %21
w: Mi- se- re- re no- bis.|San- ctus De\- * * * us.|
 F8 F4 (F8 E2 D2 E8) !fermata!F16 || F8 F8 F8 F8 F4 (F8 E2 D2 E8) !fermata!F16 || %23
w: San- ctus for\- * * * tis.|San- ctus et im- mor- ta\- * * * lis.|
 F12 F4 F8 F8 F16 !fermata!E16 | %24
w: Mi- se- re- re no- bis.|
V:4
 F,8 F,8 F,8 F,8 F,8 F,8 | F,8 D,8 A,16 !fermata!D,16 | C,8 C,8 C,8 C,8 C,8 C,8 C,8 C,8 | %3
w: Po- pu- le me- us, quid|fe- cit ti- bi?|aut in quo con- tri- sta- vi te?|
 C,8 F,8 A,8 G,16 !fermata!C,16 | F,12 F,4 F,8 B,,12 F,4 !fermata!F,16 || %5
w: re- spon- de mi- hi.|A- gi- os o The- os.|
 F,12 F,4 F,8 B,,12 F,4 !fermata!F,16 || F,12 F,4 F,4 F,4 F,12 F,4 !fermata!F,8 | %7
w: A- gi- os i- schy- ros.|A- gi- os a- tha- na- tos|
 F,8 F,4 F,4 F,8 B,,16 !fermata!F,16 || F,12 F,4 F,8 F,8 F,16 !fermata!C,16 | %9
w: e- le- i- son i- mas.|Mi- se- re- re no- bis.|
 F,8 F,8 F,8 F,8 F,8 F,8 | F,8 D,8 A,16 !fermata!D,16 | C,8 C,8 C,8 C,8 C,8 C,8 C,8 C,8 | %12
w: Po- pu- le me- us, quid|fe- cit ti- bi?|aut in quo con- tri- sta- vi te?|
 C,8 F,8 A,8 G,16 !fermata!C,16 | C8 C8 C8 C8 C8 C8 C8 C8 C8 C8 F,8 !fermata!G,16 | %14
w: re- spon- de mi- hi.|Qui- a e- du- xi te de ter- ra Ae- gy- pti:|
 F,8 F,8 F,8 F,8 F,8 F,8 F,8 C8 D8 C16 !fermata!F,16 | F,12 F,4 F,8 B,,12 F,4 !fermata!F,16 || %16
w: pa- ra- sti cru- cem Sal- va- to- ri- tu- o.|A- gi- os o The- os.|
 F,12 F,4 F,8 B,,12 F,4 !fermata!F,16 || F,12 F,4 F,4 F,4 F,12 F,4 !fermata!F,8 | %18
w: A- gi- os i- schy- ros.|A- gi- os a- tha- na- tos|
 F,8 F,4 F,4 F,8 B,,16 !fermata!F,16 || F,12 F,4 F,8 F,8 F,16 !fermata!C,16 | %20
w: e- le- i- son i- mas.|Mi- se- re- re no- bis.|
 F,8 F,8 C16 !fermata!F,16 || F,8 F,8 C16 !fermata!F,16 || F,8 F,8 F,8 F,8 F,8 C16 !fermata!F,16 || %23
w: San- ctus De- us.|San- ctus for- tis.|San- ctus et im- mor- ta- lis.|
 F,12 F,4 F,8 F,8 F,16 !fermata!C16 | %24
w: Mi- se- re- re no- bis.|

